dist/assets/img/svg/call.svg

<svg width="30" height="30" viewBox="0 0 30 30" fill="none" xmlns="http://www.w3.org/2000/svg">
<g clip-path="url(#clip0)">
<path d="M29.2133 23.1441L23.1412 19.0947C22.3706 18.5849 21.3377 18.7527 20.768 19.4801L18.9993 21.7543C18.7719 22.054 18.3587 22.1409 18.0299 21.9583L17.6935 21.7728C16.5781 21.1648 15.1903 20.408 12.3943 17.6109C9.59817 14.8138 8.83978 13.425 8.23185 12.3117L8.04736 11.9752C7.86217 11.6465 7.94747 11.2315 8.24731 11.0024L10.5199 9.23417C11.2471 8.66443 11.4151 7.63181 10.9059 6.86101L6.8565 0.788903C6.33469 0.00398065 5.28777 -0.231648 4.47994 0.253963L1.94081 1.77922C1.143 2.24826 0.557672 3.00787 0.307572 3.89889C-0.606765 7.23039 0.0810821 12.98 8.55084 21.4508C15.2884 28.1878 20.3041 29.9995 23.7516 29.9995C24.545 30.0029 25.3353 29.8997 26.1013 29.6926C26.9925 29.4428 27.7522 28.8574 28.2209 28.0594L29.7477 25.5218C30.234 24.7137 29.9985 23.6662 29.2133 23.1441ZM28.8863 25.0088L27.363 27.5479C27.0265 28.1239 26.48 28.5474 25.8382 28.7298C22.7627 29.5741 17.3895 28.8748 9.2582 20.7434C1.12688 12.6121 0.427554 7.23941 1.27194 4.1634C1.45449 3.52084 1.87853 2.97372 2.45524 2.63662L4.99438 1.11335C5.34489 0.902441 5.79928 1.00467 6.02571 1.34529L8.2254 4.64778L10.0717 7.41686C10.2928 7.75121 10.2201 8.19933 9.90468 8.44673L7.63152 10.2149C6.93975 10.7439 6.7422 11.701 7.16812 12.4606L7.34862 12.7886C7.98755 13.9604 8.7819 15.4182 11.682 18.3178C14.5821 21.2173 16.0394 22.0117 17.2107 22.6506L17.5391 22.8316C18.2986 23.2574 19.2558 23.06 19.7848 22.3682L21.553 20.095C21.8004 19.7798 22.2484 19.7072 22.5828 19.9281L28.6544 23.9775C28.9953 24.2037 29.0975 24.6583 28.8863 25.0088Z" fill="black"/>
<path d="M16.9994 5.00258C21.691 5.00779 25.4929 8.80979 25.4982 13.5013C25.4982 13.7775 25.722 14.0012 25.9981 14.0012C26.2742 14.0012 26.498 13.7775 26.498 13.5013C26.4922 8.2578 22.243 4.00851 16.9994 4.00277C16.7233 4.00277 16.4995 4.22656 16.4995 4.50267C16.4995 4.77878 16.7233 5.00258 16.9994 5.00258Z" fill="black"/>
<path d="M16.9994 8.00213C20.0351 8.00571 22.495 10.4657 22.4986 13.5013C22.4986 13.7774 22.7225 14.0012 22.9985 14.0012C23.2746 14.0012 23.4984 13.7774 23.4984 13.5013C23.4943 9.9137 20.587 7.00642 16.9994 7.00232C16.7233 7.00232 16.4995 7.22611 16.4995 7.50223C16.4995 7.77834 16.7233 8.00213 16.9994 8.00213Z" fill="black"/>
<path d="M16.9994 11.0017C18.3792 11.0033 19.4974 12.1215 19.4991 13.5013C19.4991 13.7774 19.7229 14.0012 19.999 14.0012C20.275 14.0012 20.4989 13.7774 20.4989 13.5013C20.4967 11.5696 18.9312 10.004 16.9994 10.0019C16.7233 10.0019 16.4995 10.2257 16.4995 10.5018C16.4995 10.7779 16.7233 11.0017 16.9994 11.0017Z" fill="black"/>
</g>
<defs>
<clipPath id="clip0">
<rect width="30" height="30" fill="white"/>
</clipPath>
</defs>
</svg>

<svg width="30" height="30" fill="none" xmlns="http://www.w3.org/2000/svg"><g clip-path="url(#clip0)" fill="#000"><path d="M29.213 23.144l-6.072-4.05a1.772 1.772 0 00-2.373.386l-1.769 2.274a.756.756 0 01-.97.204l-.335-.185c-1.116-.608-2.504-1.365-5.3-4.162-2.796-2.797-3.554-4.186-4.162-5.3l-.185-.336a.757.757 0 01.2-.973l2.273-1.768c.727-.57.895-1.602.386-2.373L6.856.789A1.763 1.763 0 004.48.254L1.94 1.779A3.582 3.582 0 00.309 3.9C-.607 7.23.08 12.98 8.55 21.45 15.288 28.188 20.304 30 23.75 30c.794.003 1.584-.1 2.35-.307a3.578 3.578 0 002.12-1.634l1.527-2.537a1.763 1.763 0 00-.535-2.378zm-.327 1.865l-1.523 2.539c-.337.576-.883 1-1.525 1.182-3.075.844-8.448.145-16.58-7.987C1.127 12.613.428 7.24 1.272 4.163a2.588 2.588 0 011.183-1.526l2.54-1.524a.765.765 0 011.03.232l2.2 3.303 1.847 2.769a.77.77 0 01-.167 1.03l-2.273 1.768a1.75 1.75 0 00-.464 2.246l.18.328c.64 1.171 1.434 2.63 4.334 5.529 2.9 2.9 4.357 3.694 5.529 4.333l.328.18a1.75 1.75 0 002.246-.463l1.768-2.273a.77.77 0 011.03-.167l6.071 4.05c.341.226.444.68.232 1.03zM17 5.003a8.508 8.508 0 018.498 8.498.5.5 0 101 0 9.509 9.509 0 00-9.499-9.498.5.5 0 100 1z"/><path d="M17 8.002a5.506 5.506 0 015.499 5.5.5.5 0 001 0 6.506 6.506 0 00-6.5-6.5.5.5 0 100 1z"/><path d="M17 11.002a2.503 2.503 0 012.5 2.5.5.5 0 10.999 0 3.503 3.503 0 00-3.5-3.5.5.5 0 100 1z"/></g><defs><clipPath id="clip0"><path fill="#fff" d="M0 0h30v30H0z"/></clipPath></defs></svg>
